www/assets/icons/snowmobile.svg

<svg xmlns="http://www.w3.org/2000/svg" width="24" height="24" viewBox="0 0 24 24" fill='currentColor'><path d="M22 16.5c0 .55-.45 1-1 1h-.17l-2.2-2.2c1.95-.43 3.37-1.4 3.37-2.8 0-1-8-8-8-8h-3v2h2.25l1.45 1.3-3.7 2.7-9.5-1-1.5 3 4.54 1.36-3.49 1.88c-1.82.98-1.12 3.76.95 3.76h6c2.21 0 4-1.79 4-4h4l2 2h-3v2h6c1.66 0 3-1.34 3-3zm-14 1H2l5.25-2.83 2.75.83a2 2 0 0 1-2 2"/></svg>

<svg width="24" height="24" viewBox="0 0 24 24" xmlns="http://www.w3.org/2000/svg" fill='currentColor'><path d="M22 16.5C22 17.05 21.55 17.5 21 17.5H20.83L18.63 15.3C20.58 14.87 22 13.9 22 12.5C22 11.5 14 4.5 14 4.5H11V6.5H13.25L14.7 7.8L11 10.5L1.5 9.5L0 12.5L4.54 13.86L1.05 15.74C-0.77 16.72 -0.0699999 19.5 2 19.5H8C10.21 19.5 12 17.71 12 15.5H16L18 17.5H15V19.5H21C22.66 19.5 24 18.16 24 16.5H22ZM8 17.5H2L7.25 14.67L10 15.5C10 16.6 9.11 17.5 8 17.5Z"/></svg>
